svgs/light/ruble-sign.svg

<svg xmlns="http://www.w3.org/2000/svg" viewBox="0 0 384 512"><!--! Font Awesome Pro 6.6.0 by @fontawesome - https://fontawesome.com License - https://fontawesome.com/license (Commercial License) Copyright 2024 Fonticons, Inc. --><path d="M104.7 32C82.2 32 64 50.2 64 72.7L64 288l-48 0c-8.8 0-16 7.2-16 16s7.2 16 16 16l48 0 0 64-48 0c-8.8 0-16 7.2-16 16s7.2 16 16 16l48 0 0 48c0 8.8 7.2 16 16 16s16-7.2 16-16l0-48 208 0c8.8 0 16-7.2 16-16s-7.2-16-16-16L96 384l0-64 144 0c79.5 0 144-64.5 144-144s-64.5-144-144-144L104.7 32zM96 288L96 72.7c0-4.8 3.9-8.7 8.7-8.7L240 64c61.9 0 112 50.1 112 112s-50.1 112-112 112L96 288z"/></svg>

<svg xmlns="http://www.w3.org/2000/svg" viewBox="0 0 384 512"><!--! Font Awesome Pro 6.4.2 by @fontawesome - https://fontawesome.com License - https://fontawesome.com/license (Commercial License) Copyright 2023 Fonticons, Inc. --><path d="M104.7 32C82.2 32 64 50.2 64 72.7V288H16c-8.8 0-16 7.2-16 16s7.2 16 16 16H64v64H16c-8.8 0-16 7.2-16 16s7.2 16 16 16H64v48c0 8.8 7.2 16 16 16s16-7.2 16-16V416H304c8.8 0 16-7.2 16-16s-7.2-16-16-16H96V320H240c79.5 0 144-64.5 144-144s-64.5-144-144-144H104.7zM96 288V72.7c0-4.8 3.9-8.7 8.7-8.7H240c61.9 0 112 50.1 112 112s-50.1 112-112 112H96z"/></svg>
